X: 151
T:Untitled. HA.150
M:6/4
L:1/8
Q:1/4=140
S:Henry Atkinson's original MS,Hartburn,N'umberland,1694.
R:Air
O:England
A:Hartburn,Northumberland
H:1/8
Z:vmp.Neil Brookes, Jan.2004
K:F
F2|A3Bc2f4f2|(f/g/)a (gf) (ed) (e/f/g) (fe) (dc)|!
B3A GA (BA) (GF) F2|A3Bc2 f>g fg a2|(g/f/e) d3cc4:|!
|:ee|(e/2f/2g)g3g (ga) g2 (fe)|\
(fe) dc d2f4 e>d|c2G2A2B4c2|!
A2 (GF) G2 (A/2B/2c) A2c2|\
d2B2d2(e/2f/2g)c2zf|(f/2g/2a) f3f f4:|]
